X:469
T: UNSRE MUTTER HAT DIE GAENSE
N: E1724
O: Europa, Mitteleuropa, Deutschland, Berlin
R: Scherz - Lied
M: 3/8
L: 1/16
K: F
 | FFFFFA | cccAF2 |
FFFFFA | cccAF2 |
c2B2G2 | F4z2 |
c4A2 | c4A2 |
B2G2G2 | AGABc2 |
c4A2 | c4A2 |
cBG2G2 | F4z2 |
FFFFFA | cccAF2 |
FFFFFA | cccAF2

@@@ Tune index: 5153
